X:1
T:142 - Pão da Vida
T:Letra: Salomão Luiz Ginsburg (1867-1927)
T:Música: William Letton Viner (1790-1867)
M:4/4
L:1/8
K:A
V:1
"A"A2 GF E2 C2 | "D"F2 A2 "A"(E2 C2) | c2 BA "D"F2 B2 | "E7"A2 G2 "A"A2 z2 | c2 cd e2 c2 | "D"d2 B2 "A"(c2 A2) | c2 cd e2 c2 | "D"d2 c2 "E"B2 z2 | "A"A2 GF E2 C2 | "D"F2 A2 "A"(E2 C2) | c2 BA "D"F2 B2 | "E7"A2 G2 "A"A2 z2 |]
w: 1.~Pão da_ vi-da, pão dos céus,_ Pão de_ Deus é meu Je-sus; Pão que_ dá ao co-ra-ção_ A-le_gri-a, paz e luz. Pão que_ dá ao co-ra-ção_ A-le_gri-a, paz e luz.





